X:167
T: Dui huadeng, 3)
N: C1661C
O: China,Henan, Zhenping
S: IV, 156]
R: Wuge]
M: 2/4
L: 1/16
K: G
d2edc4 | d2edc4 | G3Ad4 | G2G=FG4 |
G3Ad2dB | A2d2A2G2 | D2G2A2G2 | D2C2D4 |
d2AdA2G2 | D2G2A2G2 | D8

@@@ Tune index: 6722
